build/img/logo-algolia.svg

<?xml version="1.0" encoding="UTF-8" standalone="no"?>
<svg width="95px" height="30px" viewBox="0 0 95 30" version="1.1" xmlns="http://www.w3.org/2000/svg" xmlns:xlink="http://www.w3.org/1999/xlink" xmlns:sketch="http://www.bohemiancoding.com/sketch/ns">
    <!-- Generator: Sketch 3.5.1 (25234) - http://www.bohemiancoding.com/sketch -->
    <title>logo-algolia</title>
    <desc>Created with Sketch.</desc>
    <defs></defs>
    <g id="Page-1" stroke="none" stroke-width="1" fill="none" fill-rule="evenodd" sketch:type="MSPage">
        <g id="-supersearch" sketch:type="MSArtboardGroup" transform="translate(-301.000000, -285.000000)">
            <g id="logo-algolia" sketch:type="MSLayerGroup" transform="translate(301.000000, 285.000000)">
                <g id="Page-1" sketch:type="MSShapeGroup">
                    <g id="Algolia_logo_bg-dark">
                        <path d="M57.0356889,11.6462445 L55.7999342,16.0113146 L59.779841,13.8369692 C59.201838,12.7805076 58.2155516,11.9816779 57.0356889,11.6462445 L57.0356889,11.6462445 Z" id="Fill-1" fill="#46AEDA"></path>
                        <path d="M49.3798873,8.08070586 C48.7844436,7.48451001 47.8184678,7.48489169 47.2230242,8.08070586 L46.9535118,8.35055894 C46.3580681,8.94637309 46.3584494,9.91356919 46.9535118,10.5097651 L47.2405596,10.7967941 C47.8516328,9.81509383 48.629674,8.94866323 49.5338943,8.23528931 L49.3798873,8.08070586 L49.3798873,8.08070586 Z" id="Fill-2" fill="#46AEDA"></path>
                        <path d="M58.6961782,6.58639935 C58.6984655,6.55357423 58.7057083,6.52227585 58.7057083,6.48868735 L58.7057083,5.72531235 C58.705327,4.88254638 58.0229684,4.1989441 57.1808847,4.1985624 L54.5120621,4.1985624 C53.6703597,4.1989441 52.9876199,4.8821647 52.9876199,5.72531235 L52.9876199,6.47532827 C53.8373277,6.2371553 54.7312555,6.10699986 55.6560612,6.10699986 C56.7161947,6.10699986 57.7374452,6.27646909 58.6961782,6.58639935" id="Fill-3" fill="#46AEDA"></path>
                        <path d="M55.7642337,10.0531047 C59.1097811,10.0531047 61.8318781,12.7665623 61.8318781,16.1014918 C61.8318781,19.4364212 59.1097811,22.1498789 55.7642337,22.1498789 C52.4186862,22.1498789 49.6965892,19.4364212 49.6965892,16.1014918 C49.6965892,12.7665623 52.4186862,10.0531047 55.7642337,10.0531047 L55.7642337,10.0531047 Z M47.2695314,16.1014918 C47.2695314,20.7776098 51.0720689,24.5692338 55.7642337,24.5692338 C60.4563982,24.5692338 64.2589359,20.7776098 64.2589359,16.1014918 C64.2589359,11.4253737 60.4563982,7.63374982 55.7642337,7.63374982 C51.0720689,7.63374982 47.2695314,11.4253737 47.2695314,16.1014918 L47.2695314,16.1014918 Z" id="Fill-4" fill="#46AEDA"></path>
                        <path d="M16.8881837,24.1104354 C16.5378555,23.1825531 16.2088748,22.2707017 15.900098,21.3741178 C15.5913212,20.4775339 15.2718707,19.5653008 14.94289,18.6378002 L5.24729919,18.6378002 L3.30200548,24.1104354 L0.183360037,24.1104354 C1.00638357,21.8432117 1.77832552,19.7462206 2.49918587,17.8186988 C3.21966502,15.8915587 3.92413352,14.0621305 4.61449739,12.3311778 C5.30371765,10.5994616 5.98836344,8.94560973 6.66767235,7.3688587 C7.34698126,5.79210767 8.05716786,4.23100585 8.79823214,2.68517151 L11.5463454,2.68517151 C12.2874097,4.23100585 12.9975963,5.79210767 13.6769052,7.3688587 C14.3562141,8.94560973 15.0404787,10.5994616 15.7304614,12.3311778 C16.4196816,14.0621305 17.1245314,15.8915587 17.8453917,17.8186988 C18.5658709,19.7462206 19.3378128,21.8432117 20.1612175,24.1104354 L16.8881837,24.1104354 L16.8881837,24.1104354 Z M14.078315,16.1648469 C13.41921,14.3712974 12.7658231,12.6353827 12.1177731,10.9551944 C11.4689606,9.27538771 10.7946074,7.66275806 10.0950946,6.11654204 C9.37423423,7.66275806 8.68996966,9.27538771 8.04191962,10.9551944 C7.3934884,12.6353827 6.74963164,14.3712974 6.11187415,16.1648469 L14.078315,16.1648469 L14.078315,16.1648469 Z" id="Fill-5" fill="#FFFFFF"></path>
                        <path d="M27.6949896,24.4192207 C25.9246696,24.3779983 24.6693584,23.9970742 23.9282942,23.2753032 C23.1868488,22.5542955 22.817079,21.4309892 22.817079,19.9053843 L22.817079,0.613371798 L25.6879407,0.11870481 L25.6879407,19.441634 C25.6879407,19.9164533 25.7294922,20.307683 25.8114513,20.6168498 C25.8941731,20.925635 26.0279764,21.1733502 26.2128611,21.3588503 C26.3981272,21.5439687 26.6455298,21.6832847 26.9543066,21.7760347 C27.2634645,21.8687848 27.643908,21.9462674 28.0963995,22.0081007 L27.6949896,24.4192207" id="Fill-6" fill="#FFFFFF"></path>
                        <path d="M41.3738008,22.502386 C41.1271608,22.6680384 40.6483661,22.8787299 39.9381796,23.136369 C39.2279929,23.394008 38.3992512,23.5230184 37.4523359,23.5230184 C36.4848354,23.5230184 35.5737531,23.3680533 34.719852,23.0592681 C33.8655697,22.7497195 33.1191683,22.2707017 32.4810298,21.6214513 C31.842891,20.9718192 31.3385557,20.1634051 30.9680236,19.1946822 C30.5978725,18.2259594 30.4122254,17.0717364 30.4122254,15.7320133 C30.4122254,14.5571792 30.5868178,13.4800571 30.9371458,12.5010287 C31.2870929,11.522382 31.796384,10.6769442 32.4657816,9.96586038 C33.1344166,9.2547766 33.9524846,8.69827623 34.9203663,8.29635931 C35.8878668,7.89444237 36.978878,7.69329307 38.1934001,7.69329307 C39.5314329,7.69329307 40.6994477,7.79176844 41.6982072,7.98719243 C42.6965854,8.1833798 43.5352385,8.36353631 44.2145472,8.5280436 L44.2145472,22.8737679 C44.2145472,25.3471028 43.5767897,27.139889 42.3005124,28.2528898 C41.0234728,29.3658905 39.0888529,29.9220092 36.4951278,29.9220092 C35.4864572,29.9220092 34.534586,29.8403281 33.6391332,29.675439 C32.7436807,29.5097867 31.9664018,29.3147444 31.3080592,29.088022 L31.8329797,26.5837703 C32.4089819,26.8097294 33.1142128,27.0112604 33.94791,27.1864548 C34.7816073,27.3612677 35.6511379,27.4494375 36.5568833,27.4494375 C38.265448,27.4494375 39.4952183,27.1093541 40.2469562,26.4288053 C40.9983131,25.7490198 41.3738008,24.666554 41.3738008,23.1825531 L41.3738008,22.502386 L41.3738008,22.502386 Z M40.185201,10.3368606 C39.7010695,10.2651034 39.0476824,10.2284614 38.2246591,10.2284614 C36.6807752,10.2284614 35.491794,10.7341973 34.6580968,11.7437607 C33.8243993,12.7537058 33.4077414,14.0930472 33.4077414,15.7625483 C33.4077414,16.6904306 33.525534,17.4839589 33.762644,18.1435149 C33.9993729,18.8034525 34.3184422,19.348884 34.719852,19.7820993 C35.1212619,20.2145512 35.584427,20.5344053 36.1093475,20.7401349 C36.6342681,20.9466278 37.1748181,21.0493018 37.7306162,21.0493018 C38.4918843,21.0493018 39.1917783,20.9412842 39.8299171,20.7248674 C40.4676746,20.5080689 40.9723912,20.2561552 41.3429233,19.9675994 L41.3429233,10.5689266 C41.0543505,10.4864821 40.6689512,10.4093812 40.185201,10.3368606 L40.185201,10.3368606 Z" id="Fill-7" fill="#FFFFFF"></path>
                        <path d="M72.0921345,24.4196023 C70.3214333,24.3779983 69.0661221,23.9974559 68.3250579,23.2756849 C67.5839936,22.5546772 67.2134615,21.4309892 67.2134615,19.905766 L67.2134615,0.613753485 L70.0854667,0.119086497 L70.0854667,19.441634 C70.0854667,19.9164533 70.1262558,20.307683 70.2085962,20.6168498 C70.2909368,20.9260167 70.42474,21.1733502 70.6103874,21.3588503 C70.7952721,21.5443504 71.0419124,21.6836663 71.3510703,21.7764164 C71.6598472,21.8691665 72.0402906,21.9462674 72.4935444,22.0081007 L72.0921345,24.4196023" id="Fill-8" fill="#FFFFFF"></path>
                        <path d="M77.1248148,5.12758974 C76.6105681,5.12758974 76.1725626,4.95735714 75.8130855,4.61765526 C75.4524647,4.27719002 75.2725355,3.81916502 75.2725355,3.24167187 C75.2725355,2.66456037 75.4524647,2.20577201 75.8130855,1.86607014 C76.1725626,1.5256049 76.6105681,1.35575397 77.1248148,1.35575397 C77.6394428,1.35575397 78.0770673,1.5256049 78.437688,1.86607014 C78.7971651,2.20577201 78.9778567,2.66456037 78.9778567,3.24167187 C78.9778567,3.81916502 78.7971651,4.27719002 78.437688,4.61765526 C78.0770673,4.95735714 77.6394428,5.12758974 77.1248148,5.12758974 L77.1248148,5.12758974 L77.1248148,5.12758974 Z M75.7048229,8.03375831 L78.576447,8.03375831 L78.576447,24.1104354 L75.7048229,24.1104354 L75.7048229,8.03375831 L75.7048229,8.03375831 Z" id="Fill-9" fill="#FFFFFF"></path>
                        <path d="M88.7039441,7.63184139 C89.8567107,7.63184139 90.829167,7.78184456 91.6220751,8.08032419 C92.4142211,8.37918549 93.0523596,8.80171355 93.5361101,9.34752665 C94.0198604,9.89410314 94.3648516,10.5433536 94.5707027,11.2956596 C94.7761728,12.0479656 94.8794796,12.8773726 94.8794796,13.784262 L94.8794796,23.8325669 C94.6324582,23.8737892 94.2874668,23.9302789 93.845268,24.0024179 C93.4023067,24.0745568 92.9033082,24.1413521 92.34751,24.2031854 C91.7917119,24.2650188 91.1894064,24.3215085 90.5413565,24.3730365 C89.892544,24.4241826 89.2490684,24.450519 88.6113111,24.450519 C87.7051846,24.450519 86.8718684,24.3577689 86.1102191,24.1722688 C85.3485698,23.9867687 84.6898459,23.6928693 84.1340477,23.2913341 C83.5782496,22.8894172 83.1459622,22.3588715 82.8371853,21.6989339 C82.5284085,21.0393779 82.3740202,20.2458496 82.3740202,19.318349 C82.3740202,18.4324523 82.5539494,17.669459 82.9145701,17.0305141 C83.2740472,16.391951 83.7631343,15.8766729 84.3810691,15.4846798 C84.9986227,15.0934501 85.7191019,14.8045127 86.5425067,14.6190126 C87.36553,14.4335125 88.230105,14.3407624 89.1362315,14.3407624 C89.424042,14.3407624 89.7229075,14.3560299 90.0316843,14.3869466 C90.3404609,14.4178633 90.6339895,14.4598489 90.9115073,14.510995 C91.1894064,14.5625228 91.4314722,14.608707 91.6377046,14.6499293 C91.8431747,14.6915332 91.9872703,14.7224499 92.0696109,14.7426793 L92.0696109,13.9388455 C92.0696109,13.4647896 92.0181481,12.9960774 91.9152226,12.5319454 C91.8119157,12.0681951 91.6266496,11.6563543 91.3594242,11.2956596 C91.0918178,10.9349649 90.7262413,10.6464092 90.2630761,10.4296107 C89.799911,10.2135756 89.1976058,10.1051763 88.4569226,10.1051763 C87.5096259,10.1051763 86.6816468,10.1723533 85.971079,10.3063256 C85.2612736,10.4402979 84.7310161,10.5796139 84.3810691,10.7235101 L84.0414147,8.34292517 C84.4119468,8.17841787 85.0298816,8.0184908 85.8940753,7.86390738 C86.7586503,7.70894226 87.6952733,7.63184139 88.7039441,7.63184139 L88.7039441,7.63184139 L88.7039441,7.63184139 Z M88.9509655,22.0390174 C89.6302744,22.0390174 90.2325796,22.0233682 90.7575003,21.9924515 C91.2824207,21.9615349 91.7196639,21.9054268 92.0696109,21.8226006 L92.0696109,17.0305141 C91.8633785,16.9278402 91.529061,16.8400521 91.0662769,16.7679132 C90.6027307,16.6957742 90.0419767,16.6591322 89.3832529,16.6591322 C88.9509655,16.6591322 88.4927559,16.6904306 88.009387,16.752264 C87.5256367,16.8140973 87.0826754,16.9431077 86.6816468,17.1385317 C86.2798556,17.3347191 85.9451571,17.602282 85.6779317,17.9427472 C85.410325,18.2824491 85.2765218,18.7309319 85.2765218,19.2874323 C85.2765218,20.3179885 85.6055025,21.0340342 86.2646074,21.4359512 C86.9233313,21.8382498 87.818784,22.0390174 88.9509655,22.0390174 L88.9509655,22.0390174 L88.9509655,22.0390174 Z" id="Fill-10" fill="#FFFFFF"></path>
                    </g>
                </g>
            </g>
        </g>
    </g>
</svg>

<svg width="95" height="30" viewBox="0 0 95 30" xmlns="http://www.w3.org/2000/svg"><title>logo-algolia</title><g fill="none" fill-rule="evenodd"><path d="M57.036 11.646L55.8 16.01l3.98-2.173a4.553 4.553 0 0 0-2.744-2.19zM49.38 8.08a1.524 1.524 0 0 0-2.157 0l-.27.27a1.53 1.53 0 0 0 0 2.16l.288.287a9.99 9.99 0 0 1 2.294-2.562l-.154-.154zM58.696 6.586c.002-.032.01-.064.01-.097v-.765c0-.842-.683-1.526-1.525-1.526h-2.668c-.842 0-1.524.682-1.524 1.525v.75a9.87 9.87 0 0 1 5.708.11" fill="#46AEDA"/><path d="M55.764 10.053c3.346 0 6.068 2.714 6.068 6.048 0 3.336-2.722 6.05-6.068 6.05-3.345 0-6.067-2.714-6.067-6.05 0-3.333 2.722-6.047 6.067-6.047zM47.27 16.1c0 4.678 3.802 8.47 8.494 8.47s8.495-3.792 8.495-8.47c0-4.675-3.804-8.466-8.496-8.466s-8.494 3.79-8.494 8.467z" fill="#46AEDA"/><path d="M16.888 24.11c-.35-.927-.68-1.84-.988-2.736-.31-.896-.628-1.81-.957-2.736H5.247L3.302 24.11H.182A696.945 696.945 0 0 1 2.5 17.82c.72-1.928 1.424-3.758 2.114-5.49a191.86 191.86 0 0 1 2.054-4.96 127.89 127.89 0 0 1 2.13-4.685h2.748a127.89 127.89 0 0 1 2.13 4.684c.68 1.576 1.364 3.23 2.054 4.96.69 1.732 1.395 3.562 2.115 5.49.72 1.926 1.493 4.023 2.316 6.29H16.89zm-2.81-7.945c-.66-1.794-1.312-3.53-1.96-5.21a93.26 93.26 0 0 0-2.023-4.838 77.263 77.263 0 0 0-2.053 4.838 208.278 208.278 0 0 0-1.93 5.21h7.966zM27.695 24.42c-1.77-.042-3.026-.423-3.767-1.145-.74-.72-1.11-1.844-1.11-3.37V.613l2.87-.494V19.44c0 .474.04.866.123 1.175.084.31.218.556.403.742.185.184.433.323.74.416.31.093.69.17 1.143.232l-.4 2.41M41.374 22.502c-.247.166-.726.377-1.436.634-.71.258-1.54.387-2.486.387-.967 0-1.878-.155-2.732-.464-.854-.31-1.6-.79-2.24-1.44-.637-.648-1.14-1.457-1.512-2.425-.37-.97-.556-2.123-.556-3.463 0-1.175.175-2.252.525-3.23a7.17 7.17 0 0 1 1.53-2.536c.667-.71 1.485-1.268 2.453-1.67.968-.402 2.06-.603 3.273-.603 1.338 0 2.506.1 3.505.294a60.69 60.69 0 0 1 2.517.54v14.347c0 2.473-.638 4.266-1.914 5.38-1.277 1.112-3.21 1.668-5.805 1.668-1.01 0-1.96-.082-2.856-.247a16.39 16.39 0 0 1-2.332-.587l.525-2.504c.576.226 1.28.427 2.115.602.834.175 1.703.263 2.61.263 1.707 0 2.937-.34 3.69-1.02.75-.68 1.126-1.763 1.126-3.247v-.68zm-1.19-12.165c-.483-.072-1.136-.11-1.96-.11-1.543 0-2.732.507-3.566 1.517-.834 1.01-1.25 2.35-1.25 4.02 0 .926.118 1.72.355 2.38.236.66.555 1.205.957 1.638.4.433.864.752 1.39.958.524.207 1.065.31 1.62.31.762 0 1.462-.11 2.1-.325.638-.217 1.142-.47 1.513-.757v-9.4a9.533 9.533 0 0 0-1.158-.23zM72.092 24.42c-1.77-.042-3.026-.423-3.767-1.144-.74-.72-1.112-1.845-1.112-3.37V.614L70.085.12V19.44c0 .474.04.866.124 1.175.08.31.215.556.4.742.185.184.432.324.74.416.31.093.69.17 1.144.232l-.402 2.412M77.125 5.128a1.84 1.84 0 0 1-1.312-.51c-.36-.34-.54-.8-.54-1.376 0-.577.18-1.036.54-1.376.36-.34.798-.51 1.312-.51s.952.17 1.313.51c.36.34.54.8.54 1.376 0 .577-.18 1.035-.54 1.376-.36.34-.8.51-1.313.51zm-1.42 2.906h2.87V24.11h-2.87V8.034zM88.704 7.632c1.153 0 2.125.15 2.918.448.792.3 1.43.722 1.914 1.268s.83 1.195 1.035 1.948a9.43 9.43 0 0 1 .31 2.488v10.05L93.844 24c-.443.073-.942.14-1.497.2-.556.063-1.16.12-1.807.17-.647.052-1.29.08-1.93.08-.905 0-1.738-.094-2.5-.28-.76-.185-1.42-.48-1.976-.88a4.032 4.032 0 0 1-1.297-1.593c-.31-.66-.463-1.454-.463-2.382 0-.886.18-1.65.54-2.287.36-.638.85-1.153 1.467-1.545.62-.392 1.34-.68 2.163-.866a11.767 11.767 0 0 1 2.593-.28c.288 0 .587.016.896.047.308.03.602.073.88.124l.726.14c.205.042.35.072.432.093v-.804c0-.475-.052-.944-.155-1.408a3.23 3.23 0 0 0-.556-1.236c-.268-.36-.634-.65-1.097-.866-.463-.216-1.065-.325-1.806-.325-.947 0-1.775.067-2.486.2-.71.135-1.24.275-1.59.42l-.34-2.382c.372-.165.99-.325 1.854-.48.865-.154 1.8-.23 2.81-.23zm.247 14.407c.68 0 1.283-.017 1.808-.048.524-.03.962-.087 1.312-.17v-4.79c-.207-.104-.54-.192-1.004-.264a11.146 11.146 0 0 0-1.683-.11c-.432 0-.89.032-1.374.094-.484.062-.927.19-1.328.387a2.84 2.84 0 0 0-1.004.803c-.268.34-.4.788-.4 1.344 0 1.03.328 1.747.987 2.15.658.4 1.554.602 2.686.602z" fill="#FFF"/></g></svg>
